!!!COM: Gaspar van Weerbeke
!!!CDT: ~1450-~1517
!!!OPR: Missa N'as tu pas
!!!OTL: Kyrie
!!!OMV: 1
!!!AGN: Mass
!!!SCT: Gas0203a
!!!SCA: Gas0203a
!!!voices: 4
**kern	**text	**kern	**text	**kern	**text	**kern	**text
*part4	*part4	*part3	*part3	*part2	*part2	*part1	*part1
*staff4	*staff4	*staff3	*staff3	*staff2	*staff2	*staff1	*staff1
*I"Bassus	*	*I"Tenor	*	*I"Altus	*	*I"Superius	*
*I'B	*	*I'T	*	*I'A	*	*I'S	*
*clefF4	*	*clefGv2	*	*clefGv2	*	*clefG2	*
*k[b-]	*	*k[b-]	*	*k[b-]	*	*k[b-]	*
*M2/2	*	*M2/2	*	*M2/2	*	*M2/2	*
*met(C|)	*	*met(C|)	*	*met(C|)	*	*met(C|)	*
=1	=1	=1	=1	=1	=1	=1	=1
2F	Ky-	1r	.	2F	Ky-	1r	.
4.F	-ri-	.	.	2A	.	.	.
8E	.	.	.	.	.	.	.
=2	=2	=2	=2	=2	=2	=2	=2
8DL	.	1r	.	2B-y	-ri-	1r	.
8CJ	.	.	.	.	.	.	.
4D	.	.	.	.	.	.	.
4C	-e	.	.	2c	-e	.	.
*	*edit	*	*	*	*	*	*
4AA	e-	.	.	.	.	.	.
=3	=3	=3	=3	=3	=3	=3	=3
*	*	*	*	*	*	*lig	*
*	*	*	*	*	*edit	*	*
4.BB-y	-ley-	1r	.	4d	e-	2f	Ky-
.	.	.	.	4.f	-ley-	.	.
8AA	.	.	.	.	.	.	.
2FF	-son,	.	.	.	.	2a	.
.	.	.	.	8eL	.	.	.
.	.	.	.	8d	.	.	.
.	.	.	.	8cJ	.	.	.
*	*	*	*	*	*	*Xlig	*
=4	=4	=4	=4	=4	=4	=4	=4
1r	.	2r	.	2d	.	2b-y	-ri-
.	.	2F	Ky-	2c	-son,	4.cc	-e
.	.	.	.	.	.	8b-y	.
=5	=5	=5	=5	=5	=5	=5	=5
*	*	*lig	*	*	*	*	*
2F	Ky-	2A	.	4r	.	8aL	.
.	.	.	.	.	.	8gJ	.
.	.	.	.	4c	Ky-	2f	.
2D	-ri-	2B-y	-ri-	2d	-ri-	.	.
.	.	.	.	.	.	8eL	.
.	.	.	.	.	.	8dJ	.
*	*	*Xlig	*	*	*	*	*
!!LO:LB:g=original
=6	=6	=6	=6	=6	=6	=6	=6
4.C	-e	[1c	-e	2.G	-e	2e	.
8D	.	.	.	.	.	.	.
2E	.	.	.	.	.	4r	.
*	*	*	*	*	*	*	*edit
.	.	.	.	4E	.	4g	e-
=7	=7	=7	=7	=7	=7	=7	=7
4.AA	e-	1c_	.	2.E	e-	2a	-ley-
8BB-y	.	.	.	.	.	.	.
2C	-ley-	.	.	.	.	4g	.
.	.	.	.	[4A	-ley-	[4cc	.
=8	=8	=8	=8	=8	=8	=8	=8
2FF	-son,	1c]	.	8AL]	.	8ccL]	.
.	.	.	.	8G	.	8b-y	.
.	.	.	.	8F	.	8a	.
.	.	.	.	8EJ	.	8gJ	.
2r	.	.	.	2F	.	2a	.
=9	=9	=9	=9	=9	=9	=9	=9
*	*	*lig	*	*	*	*	*
*	*	*	*edit	*	*	*	*
2C	e-	2c	e-	2E	.	4.g	.
.	.	.	.	.	.	8a	.
[2BB-y	-ley-	[2d	-ley-	4D	.	8b-yL	.
.	.	.	.	.	.	8aJ	.
.	.	.	.	[4d	.	[4b-y	.
=10	=10	=10	=10	=10	=10	=10	=10
4BB-]	.	4d]	.	4d]	.	4b-]	.
*	*	*Xlig	*	*	*	*	*
4C	.	4c	.	4e	.	2a	.
4D	.	2B-y	.	4f	.	.	.
4E	.	.	.	4e	.	4g	.
!!LO:LB:g=original
=11	=11	=11	=11	=11	=11	=11	=11
2F	-son,	[1A	-son,	2.c	-son,	2.a	-son,
4C	Ky-	.	.	.	.	.	.
[4D	-ri-	.	.	4A	Ky-	[4f	Ky-
=12	=12	=12	=12	=12	=12	=12	=12
4D]	.	1A]	.	2d	-ri-	4f]	.
8CL	.	.	.	.	.	8eL	-ri-
8BB-yJ	.	.	.	.	.	8dJ	.
4.AA	.	.	.	2e	-e	4.c	-e
8BB-y	.	.	.	.	.	8d	.
=13	=13	=13	=13	=13	=13	=13	=13
2C	-e	4.G	Ky-	4r	.	8eL	.
.	.	.	.	.	.	8fJ	.
.	.	.	.	4e	e-	2g	.
.	.	8A	.	.	.	.	.
[2BB-y	e-	8B-yL	.	4d	.	.	.
.	.	8cJ	.	.	.	.	.
.	.	[4d	.	[4B-y	-ley-	[4f	e-
=14	=14	=14	=14	=14	=14	=14	=14
4BB-]	.	4d]	.	8B-L]	.	4f]	.
.	.	.	.	8AJ	.	.	.
4C	.	2c	-ri-	2.G	.	4e	.
2GG	.	.	.	.	.	2d	-ley-
.	.	4Bni	.	.	.	.	.
=15	=15	=15	=15	=15	=15	=15	=15
1AA	-ley-	[1c	-e_e-	2E	-son,	2c	-son,
.	.	.	.	[2A	Ky-	4r	.
.	.	.	.	.	.	[4cc	Ky-
!!LO:LB:g=original
=16	=16	=16	=16	=16	=16	=16	=16
2FF	.	1c]	.	4A]	.	8ccL]	.
.	.	.	.	.	.	8b-yJ	.
.	.	.	.	8GL	.	4a	.
.	.	.	.	8FJ	.	.	.
2C	-son,	.	.	2E	-ri-	4g	-ri-
.	.	.	.	.	.	[4a	-e
=17	=17	=17	=17	=17	=17	=17	=17
2r	.	2c	-ley-	2F	-e	8aL]	.
.	.	.	.	.	.	8g	.
.	.	.	.	.	.	8f	.
.	.	.	.	.	.	8eJ	.
[2GG	Ky-	2B-y	-son,	8GL	e-	4d	.
.	.	.	.	8A	.	.	.
.	.	.	.	8B-y	.	[4g	e-
.	.	.	.	8cJ	.	.	.
=18	=18	=18	=18	=18	=18	=18	=18
2GG]	.	4r	.	4d	.	8gL]	.
.	.	.	.	.	.	8aJ	.
.	.	4G	Ky-	4e	.	4b-y	.
8FFL	-ri-	4A	-ri-	4.f	-ley-	4.a	-ley-
8GG	.	.	.	.	.	.	.
8AA	.	[4c	-e	.	.	.	.
8BB-yJ	.	.	.	8e	.	8g	.
=19	=19	=19	=19	=19	=19	=19	=19
4C	-e	4c]	.	8cL	.	4e	.
.	.	.	.	8AJ	.	.	.
4D	e-	4F	e-	4B-y	.	2f	.
2C	-ley-	2G	-ley-	2c	.	.	.
.	.	.	.	.	.	4e	.
=20	=20	=20	=20	=20	=20	=20	=20
1Fl	-son.	1Fl	-son.	1cl	-son.	1fl	-son.
!!LO:PB:g=original
=21||	=21||	=21||	=21||	=21||	=21||	=21||	=21||
*M2/2	*	*M2/2	*	*M2/2	*	*M2/2	*
*met(C|)	*	*met(C|)	*	*met(C|)	*	*met(C|)	*
*	*	*	*	*	*Xedit	*	*
1r	.	1r	.	2c	Chri-	1r	.
.	.	.	.	4.c	-ste	.	.
.	.	.	.	8B-y	.	.	.
=22	=22	=22	=22	=22	=22	=22	=22
*	*Xedit	*	*	*	*	*	*
2C	Chri-	1r	.	8AL	.	1r	.
.	.	.	.	8GJ	.	.	.
.	.	.	.	4.A	.	.	.
4.C	-ste	.	.	.	.	.	.
.	.	.	.	8G	.	.	.
.	.	.	.	4E	.	.	.
8BB-y	.	.	.	.	.	.	.
=23	=23	=23	=23	=23	=23	=23	=23
*	*	*	*	*	*edit	*	*
4AA	.	1r	.	8CL	e-	1r	.
.	.	.	.	8D	.	.	.
*	*edit	*	*	*	*	*	*
2C	e-	.	.	8E	.	.	.
.	.	.	.	8FJ	.	.	.
.	.	.	.	4.E	.	.	.
4C	-ley-	.	.	.	.	.	.
.	.	.	.	8F	.	.	.
=24	=24	=24	=24	=24	=24	=24	=24
4BB-y	-son,	2r	.	4G	.	1r	.
4AA	.	.	.	4.A	-ley-	.	.
*	*	*	*Xedit	*	*	*	*
4.FF	Chri-	2c	Chri-	.	.	.	.
.	.	.	.	8G	.	.	.
.	.	.	.	4F	.	.	.
8GG	.	.	.	.	.	.	.
=25	=25	=25	=25	=25	=25	=25	=25
8AAL	.	4.c	-ste	2E	-son,	2r	.
8BB-yJ	.	.	.	.	.	.	.
4C	.	.	.	.	.	.	.
.	.	8B-y	.	.	.	.	.
*	*	*	*	*	*	*	*Xedit
4FF	-ste	8AL	.	2r	.	2cc	Chri-
.	.	8GJ	.	.	.	.	.
[4F	e-	[4A	.	.	.	.	.
=26	=26	=26	=26	=26	=26	=26	=26
8FL]	.	8AL]	.	4f	Chri-	4.cc	-ste
8GJ	.	8B-yJ	.	.	.	.	.
4A	.	4c	.	4e	-ste	.	.
.	.	.	.	.	.	8b-y	.
4D	.	4d	.	4f	e-	4a	.
*	*	*	*	*	*	*	*edit
[4A	.	4c	.	4e	.	[4cc	e-
!!LO:LB:g=original
=27	=27	=27	=27	=27	=27	=27	=27
*	*	*	*edit	*	*	*	*
4A]	.	2A	e-	4.f	-ley-	4cc]	.
4F	.	.	.	.	.	4cc	-ley-
.	.	.	.	8e	.	.	.
4G	-ley-	4B-y	.	4d	.	4b-y	-son,
4A	.	[4c	-ley-	4c	.	4a	.
=28	=28	=28	=28	=28	=28	=28	=28
2F	-son,	4c]	.	4A	-son,	4r	.
.	.	8B-yL	.	2f	Chri-	2cc	Chri-
.	.	8AJ	.	.	.	.	.
2r	.	2G	.	.	.	.	.
.	.	.	.	4e	.	4b-y	.
=29	=29	=29	=29	=29	=29	=29	=29
4r	.	2F	-son,	2f	-ste	4a	-ste
4F	Chri-	.	.	.	.	2cc	e-
4E	.	2c	Chri-	4r	.	.	.
4F	.	.	.	[4f	e-	8b-yL	.
.	.	.	.	.	.	8aJ	.
=30	=30	=30	=30	=30	=30	=30	=30
2C	-ste	4.c	-ste	4f]	.	2g	-ley-
.	.	.	.	4e	.	.	.
.	.	8B-y	.	.	.	.	.
2F	e-	4A	.	4.f	-ley-	2f	-son,
.	.	[4c	e-	.	.	.	.
.	.	.	.	8e	.	.	.
=31	=31	=31	=31	=31	=31	=31	=31
2F	-ley-	4c]	.	4c	.	4r	.
.	.	4c	-ley-	4A	.	4a	Chri-
4G	.	4B-y	-son,	4G	.	4b-y	-ste
4F	.	4A	.	4A	.	4cc	e-
=32	=32	=32	=32	=32	=32	=32	=32
4.B-y	.	2r	.	2G	-son,	4.dd	-ley-
8A	.	.	.	.	.	8cc	.
4F	.	4c	Chri-	4r	.	4a	.
[4G	.	4B-y	.	4d	Chri-	4g	.
!!LO:LB:g=original
=33	=33	=33	=33	=33	=33	=33	=33
4G]	.	2A	-ste	4e	-ste	2cc	.
4F	.	.	.	4f	e-	.	.
2G	-son,	2G	e-	4.d	-ley-	2b-y	.
.	.	.	.	8e	.	.	.
=34	=34	=34	=34	=34	=34	=34	=34
4F	e-	4c	-ley-	4f	.	4a	.
4G	.	4B-y	.	2.d	.	2g	.
2D	-ley-	2A	.	.	.	.	.
.	.	.	.	.	.	4f#i	.
=35	=35	=35	=35	=35	=35	=35	=35
2GG	-son,	2G	-son,	4.B-y	.	2g	-son,
.	.	.	.	8G	.	.	.
4r	.	2B-y	Chri-	2G	-son,	4r	.
4GG	Chri-	.	.	.	.	4d	Chri-
=36	=36	=36	=36	=36	=36	=36	=36
4C	-ste	4c	-ste	4r	.	4e	-ste
4D	.	4A	e-	4d	Chri-	4f	e-
4E	e-	4.G	-ley-	4c	-ste	4.g	-ley-
[4G	-ley-	.	.	[4B-y	e-	.	.
.	.	8A	.	.	.	8f	.
=37	=37	=37	=37	=37	=37	=37	=37
4G]	.	4B-y	.	8B-L]	.	4d	.
.	.	.	.	8AJ	.	.	.
4E	.	2c	.	2G	-ley-	4c	.
2D	.	.	.	.	.	2f	.
.	.	4Bni	.	4F	.	.	.
=38	=38	=38	=38	=38	=38	=38	=38
1Cl	-son.	1cl	-son.	1Gl	-son.	1el	-son.
!!LO:LB:g=original
=39||	=39||	=39||	=39||	=39||	=39||	=39||	=39||
*M2/2	*	*M2/2	*	*M2/2	*	*M2/2	*
*met(C|)	*	*met(C|)	*	*met(C|)	*	*met(C|)	*
*	*	*	*Xedit	*	*	*	*
1r	.	2F	Ky-	2r	.	1r	.
*	*	*	*	*	*Xedit	*	*
.	.	4.A	-ri-	2F	Ky-	.	.
.	.	8B-y	.	.	.	.	.
=40	=40	=40	=40	=40	=40	=40	=40
2r	.	8cL	-e	4.A	-ri-	1r	.
.	.	8B-y	.	.	.	.	.
.	.	8A	.	.	.	.	.
.	.	8GJ	.	8B-y	.	.	.
*	*Xedit	*	*	*	*	*	*
2FF	Ky-	4.A	.	4c	.	.	.
.	.	.	.	[4A	-e	.	.
.	.	8G	.	.	.	.	.
=41	=41	=41	=41	=41	=41	=41	=41
*	*	*	*edit	*	*	*	*
4.AA	-ri-	2.E	e-	4A]	.	1r	.
.	.	.	.	8GL	.	.	.
8BB-y	.	.	.	8FJ	.	.	.
8CL	-e	.	.	4E	.	.	.
8BB-y	.	.	.	.	.	.	.
*	*	*	*	*	*edit	*	*
8AA	.	4C	.	[4A	e-	.	.
8GGJ	.	.	.	.	.	.	.
=42	=42	=42	=42	=42	=42	=42	=42
*	*	*	*	*	*	*	*Xedit
4AA	.	4.C	-ley-	4A]	.	4a	Ky-
*	*edit	*	*	*	*	*	*
4C	e-	.	.	8GL	.	4a	-ri-
.	.	8D	.	8FJ	.	.	.
4C	-le-	8EL	.	4.E	.	4a	-e
.	.	8F	.	.	.	.	.
*	*	*	*	*	*	*	*edit
4C	-y-	8G	.	.	.	[4g	e-
.	.	8AJ	.	8F	.	.	.
=43	=43	=43	=43	=43	=43	=43	=43
4BB-y	-son,	4B-y	.	4G	-ley-	4g]	.
4AA	.	4c	.	4A	.	2cc	-ley-
2r	.	2d	.	2G	-son,	.	.
.	.	.	.	.	.	4bni	.
!!LO:PB:g=original
=44	=44	=44	=44	=44	=44	=44	=44
2AA	Ky-	2.c	-son,	4r	.	4cc	-son,
.	.	.	.	4A	Ky-	4c	Ky-
4AA	-ri-	.	.	4A	-ri-	4e	-ri-
4AA	-e	4A	Ky-	4A	-e	4f	-e-
=45	=45	=45	=45	=45	=45	=45	=45
4.GG	e-	4.B-y	-ri-	2D	e-	4.g	-ley-
8AA	.	8A	.	.	.	8f	.
4BB-y	.	8GL	.	4d	.	2d	-son,
.	.	8FJ	.	.	.	.	.
[4GG	.	[4G	-e_e-	[4B-y	.	.	.
=46	=46	=46	=46	=46	=46	=46	=46
4GG]	.	4G]	.	4B-]	.	4r	.
2C	-ley-	4E	-ley-	4G	.	4g	Ky-
.	.	2D	-son,	4A	.	4.f	-ri-
4BB-y	.	.	.	4B-y	.	.	.
.	.	.	.	.	.	8d	-e_e-
=47	=47	=47	=47	=47	=47	=47	=47
2C	-son,	4r	.	4G	.	2e	-ley-
.	.	4C	Ky-	2c	-ley-	.	.
2r	.	2G	-ri-	.	.	2d	-son,
.	.	.	.	4Bni	.	.	.
=48	=48	=48	=48	=48	=48	=48	=48
4r	.	4A	-e-	1c	-son,	2r	.
4C	Ky-	4G	-ley-	.	.	.	.
4C	-ri-	2E	-son,	.	.	4r	.
4C	-e_e-	.	.	.	.	4c	Ky-
!!LO:LB:g=original
=49	=49	=49	=49	=49	=49	=49	=49
4.C	-ley-	2r	.	4r	.	2g	-ri-
.	.	.	.	4c	Ky-	.	.
8BB-y	.	.	.	.	.	.	.
4AA	-son,	4.E	Ky-	4c	-ri-	4a	-e
4C	Ky-	.	.	4c	-e_e-	4g	e-
.	.	8F	-ri-	.	.	.	.
=50	=50	=50	=50	=50	=50	=50	=50
4C	-ri-	4G	-e	4.c	-ley-	4.e	-ley-
4C	-e_e-	4A	e-	.	.	.	.
.	.	.	.	8B-y	.	8f	.
4BB-y	-ley-	4D	-ley-	4G	-son,	4g	.
4AA	-son,	4E	.	4c	Ky-	4a	.
=51	=51	=51	=51	=51	=51	=51	=51
1r	.	4A	.	4c	-ri-	4e	.
.	.	4F	.	4c	-e_e-	2a	.
.	.	2G	.	2B-y	-ley-	.	.
.	.	.	.	.	.	4g	.
=52	=52	=52	=52	=52	=52	=52	=52
4r	.	2D	-son,	2A	-son,	2a	-son,
4A	Ky-	.	.	.	.	.	.
4A	-ri-	4r	.	2r	.	2r	.
4A	-e	4F	Ky-	.	.	.	.
=53	=53	=53	=53	=53	=53	=53	=53
8B-yL	e-	4G	-ri-	1r	.	1r	.
8A	.	.	.	.	.	.	.
8G	.	4.B-y	-e	.	.	.	.
8FJ	.	.	.	.	.	.	.
8EL	.	.	.	.	.	.	.
8DJ	.	8A	.	.	.	.	.
[4G	-ley-	4B-y	.	.	.	.	.
!!LO:LB:g=original
=54	=54	=54	=54	=54	=54	=54	=54
4G]	.	4c	e-	1r	.	4r	.
2F	.	4A	.	.	.	4f	Ky-
.	.	2G	-ley-	.	.	4g	-ri-
4E	.	.	.	.	.	4b-y	-e
=55	=55	=55	=55	=55	=55	=55	=55
4.F	-son,	4.F	-son,	4c	Ky-	4a	e-
.	.	.	.	4f	-ri-	2cc	-ley-
8E	.	8G	.	.	.	.	.
2C	.	8AL	.	4.e	-e	.	.
.	.	8B-yJ	.	.	.	.	.
.	.	[4c	.	.	.	8b-yL	.
.	.	.	.	8c	.	8aJ	.
=56	=56	=56	=56	=56	=56	=56	=56
4r	.	4c]	.	4e	.	8gL	.
.	.	.	.	.	.	8fJ	.
4BB-y	Ky-	4d	Ky-	4f	.	4b-y	.
4C	-ri-	4c	-ri-	4e	.	4a	.
[4E-X	-e	[4B-y	-e	4g	.	[4g	.
=57	=57	=57	=57	=57	=57	=57	=57
8E-yXL]	.	8B-L]	.	8.GL	e-	4g]	.
8FJ	.	8AJ	.	.	.	.	.
.	.	.	.	16AJk	.	.	.
4D	e-	4F	e-	4B-y	.	2f	.
2C	-ley-	2G	-ley-	2c	-ley-	.	.
.	.	.	.	.	.	4e	.
=58	=58	=58	=58	=58	=58	=58	=58
1FFl	-son.	1Fl	-son.	1cl	-son.	1fl	-son.
==	==	==	==	==	==	==	==
*-	*-	*-	*-	*-	*-	*-	*-
!!!system-decoration: [*]
!!!RDF**kern: j = editorial accidental, optional, paren up
!!!RDF**kern: i = editorial accidental
!!!RDF**kern: l = terminal breve
!!!PTL: Gaspar van Weerbeke: Collected Works. II. Masses, Part 2
!!!ISBN: 978-1-59551-518-6
!!!PPR: American Institute of Musicology
!!!PC#: Corpus Mensurabilis Musicae 106/II.2
!!!PDT: 2018
!!!PED: Kolb, Paul
!!!YEC: Copyright 2016, Kolb, Paul
!!!YEM: CC-BY-NC 4.0 (https://creativecommons.org/licenses/by-nc/4.0/legalcode)
!!!EED: Zybina, Karina
!!!EEV: 2021/10/10
!!!title: @{OPR} &mdash; @{OTL}
